X: 1
T: BANNOCKS' O' BARLEY MEAL- JIG
B: Ryan's Mammoth Collection of Fiddle Tunes
R: jig
M: 6/8
L: 1/8
Z: Contributed 20021129144841 by John Chambers jmchambers:rcn.com
K: D
uA \
| vAdd {e}dcd | fee (e2g) | (f>.e)d (f<a)A | ABc (d2A) \
| Add {e}dcd | fee (e2g) | (f>e)d (f<a)A | ABc d2 |]
ua \
| vafd dfa | agf (g2b) | afd dfa | agf (e2f) \
| (g>.a)g (f<.e)d | (A>.B)A a2g | (f>.e)d (f<a)A | ABc d2 |]
